T: Tom Tully's
M: 4/4
L: 1/8
K: Gmaj
dcBA Ggfg | e4 d4 | cdcB ABAG | F4 E4 |DEFG A2B2 | c2de d2c2 | BAGA D2F2 | G6 :|g2bg e2ag | f4 d4 | g2ag e2ag | f4 d2ef |gddd gddd | gdgd gddd | gagf edcB | ABAG FGFE |DEFG A2B2 | c2de d2c2 | BAGA D2F2 | G6 :|
